src/assets/flags/gr.svg

<?xml version="1.0" encoding="UTF-8"?>
<svg xmlns="http://www.w3.org/2000/svg" xmlns:xlink="http://www.w3.org/1999/xlink" width="25px" height="19px" viewBox="0 0 25 19" version="1.1">
<g id="surface1">
<path style=" stroke:none;fill-rule:evenodd;fill:rgb(5.098039%,36.862746%,68.627453%);fill-opacity:1;" d="M 0 0 L 25 0 L 25 2.109375 L 0 2.109375 Z M 0 0 "/>
<path style=" stroke:none;fill-rule:evenodd;fill:rgb(100%,100%,100%);fill-opacity:1;" d="M 0 2.109375 L 25 2.109375 L 25 4.222656 L 0 4.222656 Z M 0 2.109375 "/>
<path style=" stroke:none;fill-rule:evenodd;fill:rgb(5.098039%,36.862746%,68.627453%);fill-opacity:1;" d="M 0 4.222656 L 25 4.222656 L 25 6.332031 L 0 6.332031 Z M 0 4.222656 "/>
<path style=" stroke:none;fill-rule:evenodd;fill:rgb(100%,100%,100%);fill-opacity:1;" d="M 0 6.332031 L 25 6.332031 L 25 8.441406 L 0 8.441406 Z M 0 6.332031 "/>
<path style=" stroke:none;fill-rule:nonzero;fill:rgb(5.098039%,36.862746%,68.627453%);fill-opacity:1;" d="M 0 0 L 10.417969 0 L 10.417969 10.558594 L 0 10.558594 Z M 0 0 "/>
<path style=" stroke:none;fill-rule:evenodd;fill:rgb(5.098039%,36.862746%,68.627453%);fill-opacity:1;" d="M 0 8.441406 L 25 8.441406 L 25 10.558594 L 0 10.558594 Z M 0 8.441406 "/>
<path style=" stroke:none;fill-rule:evenodd;fill:rgb(100%,100%,100%);fill-opacity:1;" d="M 0 10.558594 L 25 10.558594 L 25 12.667969 L 0 12.667969 Z M 0 10.558594 "/>
<path style=" stroke:none;fill-rule:evenodd;fill:rgb(5.098039%,36.862746%,68.627453%);fill-opacity:1;" d="M 0 12.667969 L 25 12.667969 L 25 14.777344 L 0 14.777344 Z M 0 12.667969 "/>
<path style=" stroke:none;fill-rule:evenodd;fill:rgb(100%,100%,100%);fill-opacity:1;" d="M 0 14.777344 L 25 14.777344 L 25 16.890625 L 0 16.890625 Z M 0 14.777344 "/>
<path style=" stroke:none;fill-rule:evenodd;fill:rgb(100%,100%,100%);fill-opacity:1;" d="M 4.167969 0 L 6.25 0 L 6.25 10.558594 L 4.167969 10.558594 Z M 4.167969 0 "/>
<path style=" stroke:none;fill-rule:evenodd;fill:rgb(100%,100%,100%);fill-opacity:1;" d="M 0 4.222656 L 10.417969 4.222656 L 10.417969 6.332031 L 0 6.332031 Z M 0 4.222656 "/>
<path style=" stroke:none;fill-rule:nonzero;fill:rgb(5.098039%,36.862746%,68.627453%);fill-opacity:1;" d="M 0 16.890625 L 25 16.890625 L 25 19 L 0 19 Z M 0 16.890625 "/>
</g>
</svg>

<svg xmlns="http://www.w3.org/2000/svg" width="25" height="19" viewBox="0 0 25 19"><path d="M0 0h25v2.11H0Zm0 0" style="stroke:none;fill-rule:evenodd;fill:#0d5eaf;fill-opacity:1"/><path d="M0 2.11h25v2.113H0Zm0 0" style="stroke:none;fill-rule:evenodd;fill:#fff;fill-opacity:1"/><path d="M0 4.223h25v2.109H0Zm0 0" style="stroke:none;fill-rule:evenodd;fill:#0d5eaf;fill-opacity:1"/><path d="M0 6.332h25v2.11H0Zm0 0" style="stroke:none;fill-rule:evenodd;fill:#fff;fill-opacity:1"/><path d="M0 0h10.418v10.559H0Zm0 0" style="stroke:none;fill-rule:nonzero;fill:#0d5eaf;fill-opacity:1"/><path d="M0 8.441h25v2.118H0Zm0 0" style="stroke:none;fill-rule:evenodd;fill:#0d5eaf;fill-opacity:1"/><path d="M0 10.559h25v2.109H0Zm0 0" style="stroke:none;fill-rule:evenodd;fill:#fff;fill-opacity:1"/><path d="M0 12.668h25v2.11H0Zm0 0" style="stroke:none;fill-rule:evenodd;fill:#0d5eaf;fill-opacity:1"/><path d="M0 14.777h25v2.114H0ZM4.168 0H6.25v10.559H4.168Zm0 0" style="stroke:none;fill-rule:evenodd;fill:#fff;fill-opacity:1"/><path d="M0 4.223h10.418v2.109H0Zm0 0" style="stroke:none;fill-rule:evenodd;fill:#fff;fill-opacity:1"/><path d="M0 16.89h25V19H0Zm0 0" style="stroke:none;fill-rule:nonzero;fill:#0d5eaf;fill-opacity:1"/></svg>
